X:495
T: Mist on the Mountain
S: "First Collection of Traditional Irish Music" (M.Mulvihill)
Z: B.Black
L: 1/8
M: 4/4
R: reel
K: D
DE|FEFd cAAB|(3cBA eA cAAG|FEFd cAAB|cAGE EDDE|
FEFd cAAB|(3cBA eA cAAG|defg aged|cAGE ED D2 :|
defg a2 af|g2 ag fddc|defg aged|cAGE ED D2|
defg a2 af|g2 ag fddf|(3agf ge dfed|cAGE ED D2 :|
